poi/svg/2607.svg

<?xml version="1.0" encoding="UTF-8" standalone="no"?>
<svg
   xmlns:dc="http://purl.org/dc/elements/1.1/"
   xmlns:cc="http://creativecommons.org/ns#"
   xmlns:rdf="http://www.w3.org/1999/02/22-rdf-syntax-ns#"
   xmlns:svg="http://www.w3.org/2000/svg"
   xmlns="http://www.w3.org/2000/svg"
   xmlns:sodipodi="http://sodipodi.sourceforge.net/DTD/sodipodi-0.dtd"
   xmlns:inkscape="http://www.inkscape.org/namespaces/inkscape"
   inkscape:version="1.0 (4035a4fb49, 2020-05-01)"
   sodipodi:docname="2607.svg"
   id="svg20"
   version="1.2"
   viewBox="0 0 42.519639 42.519639"
   height="14.999999mm"
   width="14.999999mm">
  <metadata
     id="metadata24">
    <rdf:RDF>
      <cc:Work
         rdf:about="">
        <dc:format>image/svg+xml</dc:format>
        <dc:type
           rdf:resource="http://purl.org/dc/dcmitype/StillImage" />
        <dc:title>Qt SVG Document</dc:title>
      </cc:Work>
    </rdf:RDF>
  </metadata>
  <sodipodi:namedview
     inkscape:current-layer="svg20"
     inkscape:window-maximized="0"
     inkscape:window-y="0"
     inkscape:window-x="0"
     inkscape:cy="28.346482"
     inkscape:cx="28.346482"
     inkscape:zoom="5.8410537"
     showgrid="false"
     id="namedview22"
     inkscape:window-height="480"
     inkscape:window-width="1034"
     inkscape:pageshadow="2"
     inkscape:pageopacity="0"
     guidetolerance="10"
     gridtolerance="10"
     objecttolerance="10"
     borderopacity="1"
     bordercolor="#666666"
     pagecolor="#ffffff" />
  <title
     id="title2">Qt SVG Document</title>
  <desc
     id="desc4">Generated with Qt</desc>
  <defs
     id="defs6" />
  <g
     transform="translate(5.25984,5.25984)"
     id="g18"
     stroke-linejoin="bevel"
     stroke-linecap="square"
     fill-rule="evenodd"
     stroke-width="1"
     stroke="#000000"
     fill="none">
    <g
       id="g10"
       font-style="normal"
       font-weight="400"
       font-size="7.8px"
       font-family="'MS Shell Dlg 2'"
       stroke="none"
       fill-opacity="1"
       fill="#6fa56c">
      <path
         id="path8"
         d="M 37.2598,16 C 37.2598,27.7415 27.7415,37.2598 16,37.2598 4.25851,37.2598 -5.25984,27.7415 -5.25984,16 -5.25984,4.25851 4.25851,-5.25984 16,-5.25984 27.7415,-5.25984 37.2598,4.25851 37.2598,16"
         fill-rule="evenodd"
         vector-effect="non-scaling-stroke" />
    </g>
    <g
       id="g14"
       font-style="normal"
       font-weight="400"
       font-size="7.8px"
       font-family="'MS Shell Dlg 2'"
       transform="translate(16,12.5984)"
       stroke="none"
       fill-opacity="0.94902"
       fill="#ffffff">
      <path
         id="path12"
         d="m -2.52832,-4.83447 c -0.5179,0 -0.94832,-0.17847 -1.29126,-0.5354 -0.34294,-0.35694 -0.5144,-0.78036 -0.5144,-1.27027 0,-0.5179 0.17146,-0.94132 0.5144,-1.27026 0.34294,-0.32894 0.77336,-0.49341 1.29126,-0.49341 0.48991,0 0.91333,0.16447 1.27026,0.49341 0.356937,0.32894 0.535404,0.75236 0.535404,1.27026 0,0.48991 -0.178467,0.91333 -0.535404,1.27027 -0.35693,0.35693 -0.78035,0.5354 -1.27026,0.5354 m 14.92822,2.91845 c 0.3079,0.19597 0.4969,0.46192 0.5669,0.79786 0.07,0.335933 0.035,0.643876 -0.105,0.923824 -0.14,0.2239584 -0.3324,0.388428 -0.5774,0.493408 -0.2449,0.104981 -0.4794,0.129476 -0.7033,0.073487 h -0.315 C 11.0701,1.08643 10.6922,1.65682 10.1323,2.08374 9.57243,2.51066 8.92155,2.72412 8.17969,2.72412 c -0.13998,0 -0.28345,0 -0.43042,0 -0.14698,0 -0.29045,-0.02799 -0.43042,-0.08398 L 4.65234,8.09912 v 7.57958 c 0,0.3359 -0.11547,0.6124 -0.34643,0.8294 C 4.07495,16.725 3.8195,16.8335 3.53955,16.8335 3.18962,16.8335 2.89217,16.725 2.64722,16.5081 2.40226,16.2911 2.27979,16.0146 2.27979,15.6787 V 7.93115 h -5.9209 l -1.02881,1.88965 2.22558,5.291 c 0.13998,0.294 0.17497,0.5914 0.10498,0.8924 -0.06998,0.3009 -0.26595,0.5354 -0.58789,0.7033 -0.27994,0.14 -0.57739,0.175 -0.89233,0.105 -0.31494,-0.07 -0.5424,-0.266 -0.68237,-0.5879 L -7.04248,10.1357 V 8.2251 l -1.25977,1.76367 v 5.68993 c 0,0.3359 -0.10498,0.6124 -0.31494,0.8294 -0.20996,0.2169 -0.47591,0.3254 -0.79785,0.3254 -0.33594,0 -0.62636,-0.1085 -0.87136,-0.3254 -0.2449,-0.217 -0.3674,-0.4935 -0.3674,-0.8294 V 9.16992 L -9.625,7.63721 V 2.43018 l -0.9448,1.55371 V 8.2251 h -1.8897 V 3.85791 c 0,-0.72786 0.252,-1.33325 0.7559,-1.81616 0.5039,-0.48291 1.1128,-0.72437 1.82665,-0.72437 h 5.54297 v -3.96826 c 0,-0.48991 0.16447,-0.91333 0.4934,-1.27026 0.32894,-0.35694 0.73837,-0.5354 1.22828,-0.5354 0.5179,0 0.94832,0.17846 1.29126,0.5354 0.342931,0.35693 0.514399,0.78035 0.514399,1.27026 v 0.5669 l 2.624511,0.77685 c 0.5459,0.11198 0.77686,0.426922 0.69287,0.944825 -0.15397,0.517904 -0.5039,0.734864 -1.0498,0.650879 l -2.267581,-0.48291 V 1.31738 H 1.81787 l 7.18067,-7.4956 -0.16797,1.88965 3.56933,2.37255 M 8.17969,2.09424 c 0.60189,0 1.12329,-0.17497 1.56421,-0.5249 0.4409,-0.34994 0.7384,-0.77686 0.8923,-1.280766 L 8.72559,-0.110352 7.69678,2.09424 h 0.48291"
         fill-rule="evenodd"
         vector-effect="none" />
    </g>
    <g
       id="g16"
       font-style="normal"
       font-weight="400"
       font-size="7.8px"
       font-family="'MS Shell Dlg 2'"
       stroke="none"
       fill-opacity="1"
       fill="#6fa56c" />
  </g>
</svg>

<?xml version="1.0" encoding="UTF-8" standalone="no"?>
<svg width="11.2889mm" height="11.2889mm"
 viewBox="0 0 32 32"
 xmlns="http://www.w3.org/2000/svg" xmlns:xlink="http://www.w3.org/1999/xlink"  version="1.2" baseProfile="tiny">
<title>Qt SVG Document</title>
<desc>Generated with Qt</desc>
<defs>
</defs>
<g fill="none" stroke="black" stroke-width="1" fill-rule="evenodd" stroke-linecap="square" stroke-linejoin="bevel" >

<g fill="#6fa56c" fill-opacity="1" stroke="none" transform="matrix(1,0,0,1,0,0)"
font-family="MS Shell Dlg 2" font-size="7.8" font-weight="400" font-style="normal" 
>
<path vector-effect="non-scaling-stroke" fill-rule="evenodd" d="M37.2598,16 C37.2598,27.7415 27.7415,37.2598 16,37.2598 C4.25851,37.2598 -5.25984,27.7415 -5.25984,16 C-5.25984,4.25851 4.25851,-5.25984 16,-5.25984 C27.7415,-5.25984 37.2598,4.25851 37.2598,16 "/>
</g>

<g fill="#ffffff" fill-opacity="0.94902" stroke="none" transform="matrix(1,0,0,1,16,12.5984)"
font-family="MS Shell Dlg 2" font-size="7.8" font-weight="400" font-style="normal" 
>
<path vector-effect="none" fill-rule="evenodd" d="M-2.52832,-4.83447 C-3.04622,-4.83447 -3.47664,-5.01294 -3.81958,-5.36987 C-4.16252,-5.72681 -4.33398,-6.15023 -4.33398,-6.64014 C-4.33398,-7.15804 -4.16252,-7.58146 -3.81958,-7.9104 C-3.47664,-8.23934 -3.04622,-8.40381 -2.52832,-8.40381 C-2.03841,-8.40381 -1.61499,-8.23934 -1.25806,-7.9104 C-0.901123,-7.58146 -0.722656,-7.15804 -0.722656,-6.64014 C-0.722656,-6.15023 -0.901123,-5.72681 -1.25806,-5.36987 C-1.61499,-5.01294 -2.03841,-4.83447 -2.52832,-4.83447 M12.3999,-1.91602 C12.7078,-1.72005 12.8968,-1.4541 12.9668,-1.11816 C13.0368,-0.782227 13.0018,-0.474284 12.8618,-0.194336 C12.7218,0.0296224 12.5294,0.194092 12.2844,0.299072 C12.0395,0.404053 11.805,0.428548 11.5811,0.372559 L11.2661,0.372559 C11.0701,1.08643 10.6922,1.65682 10.1323,2.08374 C9.57243,2.51066 8.92155,2.72412 8.17969,2.72412 C8.03971,2.72412 7.89624,2.72412 7.74927,2.72412 C7.60229,2.72412 7.45882,2.69613 7.31885,2.64014 L4.65234,8.09912 L4.65234,15.6787 C4.65234,16.0146 4.53687,16.2911 4.30591,16.5081 C4.07495,16.725 3.8195,16.8335 3.53955,16.8335 C3.18962,16.8335 2.89217,16.725 2.64722,16.5081 C2.40226,16.2911 2.27979,16.0146 2.27979,15.6787 L2.27979,7.93115 L-3.64111,7.93115 L-4.66992,9.8208 L-2.44434,15.1118 C-2.30436,15.4058 -2.26937,15.7032 -2.33936,16.0042 C-2.40934,16.3051 -2.60531,16.5396 -2.92725,16.7075 C-3.20719,16.8475 -3.50464,16.8825 -3.81958,16.8125 C-4.13452,16.7425 -4.36198,16.5465 -4.50195,16.2246 L-7.04248,10.1357 L-7.04248,8.2251 L-8.30225,9.98877 L-8.30225,15.6787 C-8.30225,16.0146 -8.40723,16.2911 -8.61719,16.5081 C-8.82715,16.725 -9.0931,16.8335 -9.41504,16.8335 C-9.75098,16.8335 -10.0414,16.725 -10.2864,16.5081 C-10.5313,16.2911 -10.6538,16.0146 -10.6538,15.6787 L-10.6538,9.16992 L-9.625,7.63721 L-9.625,2.43018 L-10.5698,3.98389 L-10.5698,8.2251 L-12.4595,8.2251 L-12.4595,3.85791 C-12.4595,3.13005 -12.2075,2.52466 -11.7036,2.04175 C-11.1997,1.55884 -10.5908,1.31738 -9.87695,1.31738 L-4.33398,1.31738 L-4.33398,-2.65088 C-4.33398,-3.14079 -4.16951,-3.56421 -3.84058,-3.92114 C-3.51164,-4.27808 -3.10221,-4.45654 -2.6123,-4.45654 C-2.0944,-4.45654 -1.66398,-4.27808 -1.32104,-3.92114 C-0.978109,-3.56421 -0.806641,-3.14079 -0.806641,-2.65088 L-0.806641,-2.08398 L1.81787,-1.30713 C2.36377,-1.19515 2.59473,-0.880208 2.51074,-0.362305 C2.35677,0.155599 2.00684,0.372559 1.46094,0.288574 L-0.806641,-0.194336 L-0.806641,1.31738 L1.81787,1.31738 L8.99854,-6.17822 L8.83057,-4.28857 L12.3999,-1.91602 M8.17969,2.09424 C8.78158,2.09424 9.30298,1.91927 9.7439,1.56934 C10.1848,1.2194 10.4823,0.79248 10.6362,0.288574 L8.72559,-0.110352 L7.69678,2.09424 L8.17969,2.09424"/>
</g>

<g fill="#6fa56c" fill-opacity="1" stroke="none" transform="matrix(1,0,0,1,0,0)"
font-family="MS Shell Dlg 2" font-size="7.8" font-weight="400" font-style="normal" 
>
</g>
</g>
</svg>
